icon-themes/sifr_svg/cmd/sc_bezierconvert.svg

<svg viewBox="0 0 16 16" xmlns="http://www.w3.org/2000/svg"><path d="m1 1 5 7v1h4v-1l5-7h-2l-3.2 4h-3.6l-3.2-4zm0 5a7 8 0 0 0 5 7.65v1.35h4v-1.35a7 8 0 0 0 5-7.65h-2a5 6 0 0 1 -3 5.5v-.5h-4v.494141a5 6 0 0 1 -3-5.494141zm6 0h2v2h-2zm0 6h1 1v1.9.1h-2v-.1z" fill="#555753"/></svg>

<svg xmlns="http://www.w3.org/2000/svg" viewBox="0 0 16 16">
  <path
     style="fill:#555753"
     d="M 1 1 L 6 8 L 6 9 L 10 9 L 10 8 L 15 1 L 13 1 L 9.8 5 L 6.2 5 L 3 1 L 1 1 z M 1 6 A 7 8 0 0 0 6 13.65 L 6 15 L 10 15 L 10 13.65 A 7 8 0 0 0 15 6 L 13 6 A 5 6 0 0 1 10 11.5 L 10 11 L 6 11 L 6 11.494141 A 5 6 0 0 1 3 6 L 1 6 z M 7 6 L 9 6 L 9 8 L 7 8 L 7 6 z M 7 12 L 8 12 L 9 12 L 9 13.9 L 9 14 L 7 14 L 7 13.9 L 7 12 z "
     />
</svg>
